X:1
T:Arkansas Boys
M:2/4
L:1/16
K:F
 F| F2 FG AA CC| DF FG F4| F2 AA CC C2| DC C2 C3| C| F2F2 F2A2| CC CD C3 C|\
 FF FA CC CD| C2 CE F3||
